X:220
U: ~ = !turn!
%%topmargin 3cm
T:Woman of the House
B:Traditional Irish Fiddle Tunes. Randy Miller and Jack Perron.
Z:Transcribed by Ralph Palmer
R:Reel
L:1/8
M:C|
K:G
GB{/c}BA {/c}B2{/c}BA | GABd eBdB | A2AG A2 ((3Bcd) | eB (3.B.B.B eBdB |
GB{/c}BA {/c}B2{/c}BA | GABd eBdB | A2AG A2GA | BGAG EGG2 ::
"B1" gfed eB (3.B.B.B | eBgB eB (3.B.B.B | gfed eB (3.B.B.B | eaag a3e |
gfed eB (3.B.B.B | dgfd eB (3.B.B.B | (3.G.G.G BG A2GA | BGAG EGG2 ::
{/e}"B2"f2fd edBd | edfd edBd | {/e}f2fd edBd | eaag abag |
abag edBd | gfgd edBA | (3.G.G.G BG A2GA | BGAG EGG2 :|]
